icons/evolvere-blue-folders-flat-vivid-dark-fallback/apps/64/darktable.svg

<?xml version="1.0" encoding="UTF-8" standalone="no"?>
<!-- Created with Inkscape (http://www.inkscape.org/) -->

<svg
   xmlns:dc="http://purl.org/dc/elements/1.1/"
   xmlns:cc="http://creativecommons.org/ns#"
   xmlns:rdf="http://www.w3.org/1999/02/22-rdf-syntax-ns#"
   xmlns:svg="http://www.w3.org/2000/svg"
   xmlns="http://www.w3.org/2000/svg"
   xmlns:sodipodi="http://sodipodi.sourceforge.net/DTD/sodipodi-0.dtd"
   xmlns:inkscape="http://www.inkscape.org/namespaces/inkscape"
   width="64"
   height="64"
   id="svg13094"
   version="1.1"
   inkscape:version="0.91+devel r"
   sodipodi:docname="darktable.svg">
  <sodipodi:namedview
     id="base"
     pagecolor="#ffffff"
     bordercolor="#666666"
     borderopacity="1.0"
     inkscape:pageopacity="0"
     inkscape:pageshadow="2"
     inkscape:zoom="11.313709"
     inkscape:cx="35.942443"
     inkscape:cy="29.67489"
     inkscape:document-units="px"
     inkscape:current-layer="svg13094"
     showgrid="false"
     inkscape:snap-bbox="true"
     inkscape:bbox-paths="true"
     inkscape:bbox-nodes="true"
     inkscape:snap-bbox-edge-midpoints="true"
     inkscape:snap-bbox-midpoints="true"
     inkscape:object-paths="true"
     inkscape:snap-intersection-paths="true"
     inkscape:object-nodes="true"
     inkscape:snap-smooth-nodes="true"
     inkscape:snap-midpoints="true"
     inkscape:snap-object-midpoints="true"
     inkscape:snap-center="true"
     showguides="true"
     inkscape:guide-bbox="true"
     inkscape:window-width="1920"
     inkscape:window-height="1023"
     inkscape:window-x="-10"
     inkscape:window-y="35"
     inkscape:window-maximized="1"
     inkscape:snap-global="true"
     fit-margin-top="0"
     fit-margin-left="0"
     fit-margin-right="0"
     fit-margin-bottom="0"
     showborder="true"
     inkscape:showpageshadow="false"
     inkscape:snap-page="true">
    <inkscape:grid
       type="xygrid"
       id="grid3075"
       empspacing="5"
       visible="true"
       enabled="true"
       snapvisiblegridlinesonly="true"
       originx="1.6362304e-08px"
       originy="18px" />
  </sodipodi:namedview>
  <defs
     id="defs13096" />
  <metadata
     id="metadata13099">
    <rdf:RDF>
      <cc:Work
         rdf:about="">
        <dc:format>image/svg+xml</dc:format>
        <dc:type
           rdf:resource="http://purl.org/dc/dcmitype/StillImage" />
        <dc:title></dc:title>
      </cc:Work>
    </rdf:RDF>
  </metadata>
  <path
     id="path4026"
     d="m 0,4 0,30 0,28 2,2 30,0 30,0 2,-2 L 64,34 64,4 32,4 0,4 z"
     style="color:#000000;fill:#36475c;fill-opacity:1;fill-rule:nonzero;stroke:none;stroke-width:2.28571415;marker:none;visibility:visible;display:inline;overflow:visible;enable-background:accumulate"
     inkscape:connector-curvature="0" />
  <path
     style="color:#000000;fill:#c1273c;fill-opacity:1;fill-rule:nonzero;stroke:none;stroke-width:2.28571415;marker:none;visibility:visible;display:inline;overflow:visible;enable-background:accumulate"
     d="M 0,4 0,9.09375 23.1875,32.21875 30.71875,4 0,4 z"
     id="path4044" />
  <path
     style="color:#000000;fill:#d46b1d;fill-opacity:1;fill-rule:nonzero;stroke:none;stroke-width:2.28571415;marker:none;visibility:visible;display:inline;overflow:visible;enable-background:accumulate"
     d="M 34.84375,4 29.125,25.5 64,16.09375 64,4 34.84375,4 z"
     id="path4042" />
  <path
     style="color:#000000;fill:#bf33c7;fill-opacity:1;fill-rule:nonzero;stroke:none;stroke-width:2.28571415;marker:none;visibility:visible;display:inline;overflow:visible;enable-background:accumulate"
     d="M 0,14.75 0,34 0,47.75 26.0625,40.71875 0,14.75 z"
     id="path4040" />
  <path
     style="color:#000000;fill:#d9b009;fill-opacity:1;fill-rule:nonzero;stroke:none;stroke-width:2.28571415;marker:none;visibility:visible;display:inline;overflow:visible;enable-background:accumulate"
     d="M 64,20.25 37.9375,27.28125 64,53.25 64,34 64,20.25 z"
     id="path4038" />
  <path
     style="color:#000000;fill:#269b3a;fill-opacity:1;fill-rule:nonzero;stroke:none;stroke-width:2.28571415;marker:none;visibility:visible;display:inline;overflow:visible;enable-background:accumulate"
     d="M 40.8125,35.78125 33.28125,64 62,64 l 2,-2 0,-3.09375 -23.1875,-23.125 z"
     id="path4034" />
  <path
     style="color:#000000;fill:#276ee9;fill-opacity:1;fill-rule:nonzero;stroke:none;stroke-width:2.28571415;marker:none;visibility:visible;display:inline;overflow:visible;enable-background:accumulate"
     d="M 34.875,42.5 0,51.90625 0,62 2,64 29.15625,64 34.875,42.5 z"
     id="path4095" />
  <path
     inkscape:connector-curvature="0"
     style="color:#000000;fill:#537cb0;fill-opacity:1;fill-rule:nonzero;stroke:none;stroke-width:2.28571415;marker:none;visibility:visible;display:inline;overflow:visible;enable-background:accumulate"
     d="M 2,0 0,1 0,4 32,4 64,4 64,1 62,0 32,0 2,0 z"
     id="path4090" />
  <path
     style="color:#000000;fill:#ff566a;fill-opacity:1;fill-rule:nonzero;stroke:none;stroke-width:4;stroke-linecap:butt;stroke-linejoin:miter;stroke-miterlimit:4;stroke-opacity:1;stroke-dasharray:none;stroke-dashoffset:0;marker:none;visibility:visible;display:inline;overflow:visible;enable-background:accumulate"
     d="M 2 0 L 0 1 L 0 4 L 30.71875 4 L 30.71875 0 L 2 0 z "
     id="rect4080" />
  <path
     style="color:#000000;fill:#ffb457;fill-opacity:1;fill-rule:nonzero;stroke:none;stroke-width:4;marker:none;visibility:visible;display:inline;overflow:visible;enable-background:accumulate"
     d="M 34.84375 0 L 34.84375 4 L 64 4 L 64 1 L 62 0 L 34.84375 0 z "
     id="rect4082" />
  <path
     style="fill:#ffffff;fill-opacity:0.14487634;fill-rule:nonzero"
     d="M 0,3 0,6 2,4 Z"
     id="path4298"
     inkscape:connector-curvature="0"
     sodipodi:nodetypes="cccc" />
  <path
     d="M 64,6 62,4 64,3 z"
     id="path3028"
     style="fill:#1f0700;fill-opacity:0.13759861"
     inkscape:connector-curvature="0" />
  <g
     id="g3043"
     inkscape:export-filename="folder.png"
     inkscape:export-xdpi="90"
     inkscape:export-ydpi="90"
     transform="translate(-0.62500009,0.082283)" />
  <g
     id="scalable"
     transform="matrix(1.0385892,0,0,1.0385892,1214.7222,1878.8121)"
     inkscape:label="#g3701"
     style="fill:#ffffff" />
  <path
     transform="matrix(0.16208638,0,0,0.16208638,-9.4941131,-7.4941131)"
     d="m 288,256 a 32,32 0 1 1 -64,0 32,32 0 1 1 64,0 z"
     sodipodi:ry="32"
     sodipodi:rx="32"
     sodipodi:cy="256"
     sodipodi:cx="256"
     id="path4171"
     style="fill:#d5dade;fill-opacity:1;stroke:none;display:inline;enable-background:new"
     sodipodi:type="arc" />
</svg>

<svg xmlns="http://www.w3.org/2000/svg" viewBox="0 0 64 64"><g color="#000"><path d="m0 4v30 28l2 2h30 30l2-2v-28-30h-32-32" fill="#36475c"/><path d="m0 4v5.094l23.19 23.13 7.531-28.22h-30.719" fill="#c1273c"/><path d="m34.844 4l-5.719 21.5 34.875-9.406v-12.09h-29.16" fill="#d46b1d"/><path d="m0 14.75v19.25 13.75l26.06-7.03-26.06-25.969" fill="#bf33c7"/><path d="m64 20.25l-26.06 7.03 26.06 25.969v-19.25-13.75" fill="#d9b009"/><path d="m40.813 35.781l-7.531 28.22h28.719l2-2v-3.094l-23.19-23.12" fill="#269b3a"/><path d="m34.875 42.5l-34.875 9.406v10.09l2 2h27.16l5.719-21.5" fill="#276ee9"/><path d="m2 0l-2 1v3h32 32v-3l-2-1h-30-30" fill="#537cb0"/><path d="m2 0l-2 1v3h30.719v-4h-28.719" fill="#ff566a"/><path d="m34.844 0v4h29.16v-3l-2-1h-27.16" fill="#ffb457"/></g><path d="m0 3v3l2-2" fill="#fff" fill-opacity=".145"/><path d="m64 6l-2-2 2-1z" fill="#1f0700" fill-opacity=".138"/><path transform="matrix(.16209 0 0 .16209-9.494-7.494)" d="m288 256a32 32 0 1 1 -64 0 32 32 0 1 1 64 0" fill="#d5dade"/></svg>
